icon-themes/breeze_svg/cmd/lc_tablemodevariable.svg

<svg viewBox="0 0 24 24" xmlns="http://www.w3.org/2000/svg"><path d="m7.296875 12.992188-2.296875 2.091796v-2.083984h-1v2.996094 1 3.003906h1v-2.091797l2.296875 2.091797.7070312-.707031-2.296875-2.296875h12.5898438l-2.296875 2.296875.707031.707031 3.292969-3.003906v-1l-3.292969-3.003906-.707031.707031 2.296875 2.296875h-12.5898438l2.296875-2.296875z" fill="#1d99f3"/><path d="m19 13h1v7h-1z" fill="#1d99f3"/><path d="m4 4v8h1v-1h4v1h1v-1h4v1h1v-1h4v1h1v-8zm1 1h4v2h-4zm5 0h4v2h-4zm5 0h4v2h-4zm-10 3h4v2h-4zm5 0h4v2h-4zm5 0h4v2h-4z" fill="#4d4d4d"/></svg>

<svg viewBox="0 0 24 24" xmlns="http://www.w3.org/2000/svg">
  <path
     style="fill:#1d99f3"
     d="M 7.296875,12.992188 5,15.083984 V 13 H 4 v 2.996094 1 V 20 H 5 V 17.908203 L 7.296875,20 8.0039062,19.292969 5.7070312,16.996094 H 18.296875 L 16,19.292969 16.707031,20 20,16.996094 v -1 L 16.707031,12.992188 16,13.699219 18.296875,15.996094 H 5.7070312 l 2.296875,-2.296875 z"
     />
  <rect
     style="fill:#1d99f3"
     width="1"
     height="7"
     x="19"
     y="13" />
  <path
     style="fill:#4d4d4d"
     d="m 4,4 v 8 h 1 v -1 h 4 v 1 h 1 v -1 h 4 v 1 h 1 v -1 h 4 v 1 h 1 V 4 Z M 5,5 H 9 V 7 H 5 Z m 5,0 h 4 v 2 h -4 z m 5,0 h 4 V 7 H 15 Z M 5,8 h 4 v 2 H 5 Z m 5,0 h 4 v 2 h -4 z m 5,0 h 4 v 2 h -4 z"
     />
</svg>
